X:1
T:Svängrumpa
R:Svängrumpa
O:Skåne
B:Omtyckta Skånska Allspelslåtar
M:3/4
L:1/8
K:A
|: "A"a2 (ae) "E"fg | "A"a2 (ab) ag | "E"(fg) (ae) fg | "A"a2 ed c2 | 
a2 (ae) "E"fg |"A"a2 (ab) ag | "E"(fg) (ae) fg |[1 "A"a2 a4 :|[2 "A"a2 (a2 A2)]| 
K:D  
|: "D"d2 ef "G"g2 | "D"f2 ef d2 | (Ad) ef "G"g2 | (gf) ef "D"d2 | "A"(gf) (ed) (cB) | 
(AB) cd e2 | (gf) (ed) cB | (AB) cd e2 | "D"(fa) (fe) "A"(fc) |[1 "D"d2 (d2 A2) :|[2 "D"d2 d4]|

